X: 12712
T: Father John Angus Rankin
R: reel
M: 4/4
K: Bminor
C|B,2BA BdcB|cAeA cAAC|B,2 BA BdcB|Afec dBBC|
B,2 BA BdcB|cAeA cAAc|fedc dcBA|FDEC DB,B,|
g|f2 df afdf|cAeA cAAg|f2 df afdf|cAec dBBg|
f2 df afdB|(3AAA cA eAce|fedc dcBA|FDEC DB,B,||

